Sources/FrostedUI/Resources/Icons.xcassets/threeDotsCircle16.imageset/three-dots-circle-16.svg

<svg width="16" height="16" viewBox="0 0 16 16" fill="none" xmlns="http://www.w3.org/2000/svg" data-fui-icon="true">
  <path
    d="M8 1.08301C11.8197 1.08318 14.9158 4.18029 14.916 8C14.9158 11.8197 11.8197 14.9158 8 14.916C4.18031 14.9158 1.08318 11.8197 1.08301 8C1.08318 4.1803 4.18031 1.08321 8 1.08301ZM8 2.58301C5.00873 2.58321 2.58318 5.00873 2.58301 8C2.58318 10.9913 5.00874 13.4158 8 13.416C10.9913 13.4158 13.4158 10.9913 13.416 8C13.4158 5.00872 10.9913 2.58318 8 2.58301ZM5.42773 7.08789C5.88949 7.13514 6.24984 7.52569 6.25 8C6.24982 8.50596 5.83976 8.91564 5.33398 8.91602C4.85954 8.91602 4.46899 8.55587 4.42188 8.09375L4.41699 8L4.42188 7.90625C4.46885 7.44399 4.85944 7.08301 5.33398 7.08301L5.42773 7.08789ZM8.09375 7.08789C8.55572 7.13499 8.91585 7.52563 8.91602 8C8.91584 8.50602 8.50602 8.91584 8 8.91602C7.52565 8.91583 7.13498 8.55571 7.08789 8.09375L7.08301 8L7.08789 7.90625C7.13482 7.44412 7.52553 7.08319 8 7.08301L8.09375 7.08789ZM10.7607 7.08789C11.2227 7.13499 11.5828 7.52563 11.583 8C11.5828 8.50602 11.173 8.91584 10.667 8.91602C10.1925 8.91602 9.80199 8.55583 9.75488 8.09375L9.75 8L9.75488 7.90625C9.80184 7.44402 10.1924 7.08301 10.667 7.08301L10.7607 7.08789Z"
    fill="currentColor"
  />
</svg>

<svg xmlns="http://www.w3.org/2000/svg" width="16" height="16" fill="none" data-fui-icon="true" viewBox="0 0 16 16"><path fill="currentColor" d="M8 1.083a6.917 6.917 0 1 1-.002 13.834A6.917 6.917 0 0 1 8 1.083m0 1.5a5.417 5.417 0 1 0 0 10.832A5.417 5.417 0 0 0 8 2.583M5.428 7.088a.917.917 0 1 1-1.006 1.006L4.417 8l.005-.094a.917.917 0 0 1 .912-.823zm2.666 0a.917.917 0 1 1-1.006 1.006L7.083 8l.005-.094A.92.92 0 0 1 8 7.083zm2.667 0a.917.917 0 1 1-1.006 1.006L9.75 8l.005-.094a.917.917 0 0 1 .912-.823z"/></svg>
